X:1807
T:Longwise Eightsome Reel
P:Longwise Eightsome Reel
C:William Davidson
R:Medley (1x64)
B:RSCDS 18-7
Z:Anselm Lingnau <anselm@strathspey.org>
M:4/4
L:1/8
K:A
%%scale 0.81
E|"A"C<E A>E "D"F<D "B"B>A|"E"G<B e/e/e "A"c<A A>c|\
  "B"d>f B>d "A"c<A A>c|"Bm"F<B B>c "E7"d/c/B/A/ G/F/E/D/|
  "A"C<E A/A/A "D"F<D "Bm"D>F|"E"G>B e/e/e "A"c<A A>c|\
  "Bm"d<f B>d "A"c<e "F#m"A>c|"Bm"F<B "E7"A/G/F/E/ "A"A2 A||
f|"A"e<A c>A a<A c>A|"Bm"B>b b/b/b "E"g<e e>g|\
  "A"a>e c>e A>e c>e|"Bm"d<F B>A "E"G<E E>d|
  "A"c>e a/a/a "D"f<d d>c|"B"B>b b/b/b "E"g<e e>g|\
  "A"a>e d/c/B/A/ c<e "D"a>f|"E7"g<b e>g "A"a2 a:|
P:Miss Robertson's Reel
C:Mackintosh, Robert
F|"A"E2 CA "D"FDFA|"E"BEGB "A"AecA|E2 CA "D"FDFA|"E"GBEd "A"cA AF|
  "A"E2 CA "D"FDFA|"E"BEGB "A"AecA|E2 CA "D"FDFA|"E"GBEd "A"cA A||
e|"A"aAgA "D"fA"A"eA|"Bm"dcBA "E"BGEg|"A"aAgA "D"fA"A"eA|"E"BcdB "A"cAA g|
  "A"aAgA "D"fA"A"eA|"Bm"dcBA "E"GF"A7"E=G|\
      "D"FD"B7"FA "E"GEdB|"A"ce"E7"Bd "A"cA A|]

